resources/lib/oojs-ui/themes/mediawiki/images/icons/article-rtl.svg

<?xml version="1.0" encoding="utf-8"?>
<svg xmlns="http://www.w3.org/2000/svg" width="24" height="24" viewBox="0 0 24 24">
    <g id="g16">
        <path d="M11 10h-4v-5h4v5zm5 2h-9v-1h9v1zm0 2h-9v-1h9v1zm0 2h-9v-1h9v1zm-4-9h4v1h-4v-1zm0 2h4v1h-4v-1zm0-4h4v1h-4v-1zm6-2h-13v16h10c1.7 0 3-1.3 3-3v-13z" id="path18"/>
    </g>
</svg>

<?xml version="1.0" encoding="utf-8"?>
<svg xmlns="http://www.w3.org/2000/svg" width="24" height="24" viewBox="0 0 24 24">
    <g id="g16">
        <path d="M11 10H7V5h4v5zm5 2H7v-1h9v1zm0 2H7v-1h9v1zm0 2H7v-1h9v1zm-4-9h4v1h-4V7zm0 2h4v1h-4V9zm0-4h4v1h-4V5zm6-2H5v16h10c1.7 0 3-1.3 3-3V3z" id="path18"/>
    </g>
</svg>
